X: 15028
T: George Ross's
R: reel
M: 4/4
K: Gmajor
G3 A|:BGGF GABc|dG A/G/F GFDE|=F/G/F E/F/G FGAB|c=F F/G/F C=FAc|
B/A/G GF GABc|dG G/A/G dG B/A/G|Ad d/^c/d Ad e/f/g|1 fdcA GFGA:|2 fdcA G2 A/B/c||
|:dggf g/a/g ga|bgaf gfde|=f/g/f cf fedc|c/d/c Bc ABcA|
dg g/f/g ag g/f/g|bg g/f/g ag g/f/g|Ad d/^c/d Ad e/f/g|1 fdcA G2 A/B/c:|2 fdcA G3||

